findly-builder/apps/searchassist/src/assets/icons/pagination/first-arrow.svg

<svg width="16" height="16" viewBox="0 0 16 16" fill="none" xmlns="http://www.w3.org/2000/svg">
<path fill-rule="evenodd" clip-rule="evenodd" d="M7.50091 8.36437C7.31202 8.17497 7.30091 7.87481 7.46757 7.67238L7.50091 7.63563L11.7731 3.15093C11.9738 2.94969 12.2992 2.94969 12.4999 3.15093C12.6888 3.34033 12.6999 3.64048 12.5332 3.84291L12.4999 3.87967L8.59111 8L12.4999 12.1203C12.6888 12.3097 12.6999 12.6099 12.5332 12.8123L12.4999 12.8491C12.311 13.0385 12.0117 13.0496 11.8098 12.8825L11.7731 12.8491L7.50091 8.36437Z" fill="#202124"/>
<path fill-rule="evenodd" clip-rule="evenodd" d="M3.15032 8.36437C2.96144 8.17497 2.95033 7.87481 3.11699 7.67238L3.15032 7.63563L7.42254 3.15093C7.62323 2.94969 7.9486 2.94969 8.14929 3.15093C8.33817 3.34033 8.34928 3.64048 8.18262 3.84291L8.14929 3.87967L4.24053 8L8.14929 12.1203C8.33817 12.3097 8.34928 12.6099 8.18262 12.8123L8.14929 12.8491C7.96041 13.0385 7.66107 13.0496 7.4592 12.8825L7.42254 12.8491L3.15032 8.36437Z" fill="#202124"/>
</svg>

<svg width="16" height="16" fill="none" xmlns="http://www.w3.org/2000/svg"><path fill-rule="evenodd" clip-rule="evenodd" d="M7.5 8.364a.516.516 0 0 1-.032-.692l.033-.036 4.272-4.485a.513.513 0 0 1 .727 0c.189.19.2.49.033.692l-.033.037L8.59 8l3.909 4.12c.189.19.2.49.033.692l-.033.037a.513.513 0 0 1-.69.034l-.037-.034L7.5 8.364Z" fill="#202124"/><path fill-rule="evenodd" clip-rule="evenodd" d="M3.15 8.364a.516.516 0 0 1-.033-.692l.033-.036L7.423 3.15a.513.513 0 0 1 .726 0c.19.19.2.49.034.692l-.034.037L4.241 8l3.908 4.12c.19.19.2.49.034.692l-.034.037a.513.513 0 0 1-.69.034l-.036-.034L3.15 8.364Z" fill="#202124"/></svg>
